assets/assets/images/icons/icon-large-chat.svg

<?xml version="1.0" encoding="utf-8"?>
<!-- Generated by IcoMoon.io -->
<!DOCTYPE svg PUBLIC "-//W3C//DTD SVG 1.1//EN" "http://www.w3.org/Graphics/SVG/1.1/DTD/svg11.dtd">
<svg version="1.1" xmlns="http://www.w3.org/2000/svg" xmlns:xlink="http://www.w3.org/1999/xlink" width="60" height="60" viewBox="0 0 60 60">
<path fill="#61c192" d="M1.579 45.789c-0.474 0-0.789-0.158-1.105-0.474-0.474-0.474-0.632-1.263-0.316-1.895l3.789-7.737c-2.526-3.632-3.947-8.211-3.947-12.789 0-12.632 10.263-22.895 22.895-22.895s22.895 10.263 22.895 22.895-10.263 22.895-22.895 22.895c-4.579 0-9.158-1.421-12.947-3.947l-7.737 3.789c-0.158 0.158-0.316 0.158-0.632 0.158zM10.105 38.368c0.316 0 0.632 0.158 0.947 0.316 3.474 2.526 7.579 3.947 11.842 3.947 10.895 0 19.737-8.842 19.737-19.737s-8.842-19.737-19.737-19.737-19.737 8.842-19.737 19.737c0 4.263 1.421 8.368 3.947 11.842 0.316 0.474 0.474 1.105 0.158 1.579l-2.211 4.263 4.421-2.053c0.158-0.158 0.474-0.158 0.632-0.158z"></path>
<path fill="#61c192" d="M37.105 60c-12.632 0-22.895-10.263-22.895-22.895s10.263-22.895 22.895-22.895c4.579 0 9.158 1.421 12.947 3.947l7.737-3.789c0.632-0.316 1.421-0.158 1.895 0.316s0.632 1.263 0.316 1.895l-3.789 7.737c2.684 3.789 3.947 8.211 3.947 12.947-0.158 12.474-10.421 22.737-23.053 22.737zM37.105 17.368c-10.895 0-19.737 8.842-19.737 19.737s8.842 19.737 19.737 19.737 19.737-8.842 19.737-19.737c0-4.263-1.421-8.368-3.947-11.842-0.316-0.474-0.474-1.105-0.158-1.579l2.211-4.263-4.421 2.053c-0.474 0.316-1.105 0.158-1.579-0.158-3.474-2.526-7.579-3.947-11.842-3.947z"></path>
</svg>

<svg xmlns="http://www.w3.org/2000/svg" width="60" height="60"><path fill="#61c192" d="M1.579 45.789c-.474 0-.789-.158-1.105-.474C0 44.841-.158 44.052.158 43.42l3.789-7.737C1.421 32.051 0 27.472 0 22.894 0 10.262 10.263-.001 22.895-.001S45.79 10.262 45.79 22.894 35.527 45.789 22.895 45.789c-4.579 0-9.158-1.421-12.947-3.947l-7.737 3.789c-.158.158-.316.158-.632.158zm8.526-7.421c.316 0 .632.158.947.316 3.474 2.526 7.579 3.947 11.842 3.947 10.895 0 19.737-8.842 19.737-19.737S33.789 3.157 22.894 3.157 3.157 11.999 3.157 22.894c0 4.263 1.421 8.368 3.947 11.842.316.474.474 1.105.158 1.579l-2.211 4.263 4.421-2.053c.158-.158.474-.158.632-.158z"/><path fill="#61c192" d="M37.105 60C24.473 60 14.21 49.737 14.21 37.105S24.473 14.21 37.105 14.21c4.579 0 9.158 1.421 12.947 3.947l7.737-3.789c.632-.316 1.421-.158 1.895.316s.632 1.263.316 1.895l-3.789 7.737c2.684 3.789 3.947 8.211 3.947 12.947C60 49.737 49.737 60 37.105 60zm0-42.632c-10.895 0-19.737 8.842-19.737 19.737s8.842 19.737 19.737 19.737S56.842 48 56.842 37.105c0-4.263-1.421-8.368-3.947-11.842-.316-.474-.474-1.105-.158-1.579l2.211-4.263-4.421 2.053c-.474.316-1.105.158-1.579-.158-3.474-2.526-7.579-3.947-11.842-3.947z"/></svg>
